modules/feather/icons/code.svg

<?xml version="1.0" encoding="UTF-8"?>
<svg width="24px" height="24px" viewBox="0 0 24 24" version="1.1" xmlns="http://www.w3.org/2000/svg" xmlns:xlink="http://www.w3.org/1999/xlink">
    <!-- Generator: Sketch 49.1 (51147) - http://www.bohemiancoding.com/sketch -->
    <title>code</title>
    <desc>Created with Sketch.</desc>
    <defs></defs>
    <g id="code" stroke="none" stroke-width="1" fill="none" fill-rule="evenodd">
        <path d="M15.2928932,6.70710678 C14.9023689,6.31658249 14.9023689,5.68341751 15.2928932,5.29289322 C15.6834175,4.90236893 16.3165825,4.90236893 16.7071068,5.29289322 L22.7071068,11.2928932 C23.0976311,11.6834175 23.0976311,12.3165825 22.7071068,12.7071068 L16.7071068,18.7071068 C16.3165825,19.0976311 15.6834175,19.0976311 15.2928932,18.7071068 C14.9023689,18.3165825 14.9023689,17.6834175 15.2928932,17.2928932 L20.5857864,12 L15.2928932,6.70710678 Z M3.41421356,12 L8.70710678,17.2928932 C9.09763107,17.6834175 9.09763107,18.3165825 8.70710678,18.7071068 C8.31658249,19.0976311 7.68341751,19.0976311 7.29289322,18.7071068 L1.29289322,12.7071068 C0.902368927,12.3165825 0.902368927,11.6834175 1.29289322,11.2928932 L7.29289322,5.29289322 C7.68341751,4.90236893 8.31658249,4.90236893 8.70710678,5.29289322 C9.09763107,5.68341751 9.09763107,6.31658249 8.70710678,6.70710678 L3.41421356,12 Z" id="Combined-Shape" fill="#000000" fill-rule="nonzero"></path>
    </g>
</svg>

<svg width="24" height="24" viewBox="0 0 24 24" xmlns="http://www.w3.org/2000/svg"><path d="M15.293 6.707a1 1 0 1 1 1.414-1.414l6 6a1 1 0 0 1 0 1.414l-6 6a1 1 0 0 1-1.414-1.414L20.586 12l-5.293-5.293zM3.414 12l5.293 5.293a1 1 0 0 1-1.414 1.414l-6-6a1 1 0 0 1 0-1.414l6-6a1 1 0 0 1 1.414 1.414L3.414 12z" fill="#000" fill-rule="nonzero"/></svg>
